X:1
T:Title
%%score { 1 | ( 2 3 ) }
L:1/8
Q:1/4=100
M:4/4
K:D
V:1 treble nm="Grand Piano"
V:2 bass 
V:3 bass 
V:1
 F2 F[EG] [FA][FA][FA][FA] | BBBB [FA]3 [Fd] | [Ec]2 [CE][DF] [EG][DF][EG][FA] | %3
w: G.~W.~Elderkin * * * * * *|||
 .[Ec]2 [A,EA][A,EG] [A,DF]3 A | d2 d>d dDDD | F2 [FA]2 [GB]3 [GB] | [FA]>[FA] BB Adc[Ad] | %7
w: ||||
 e2 c2 [Fd]4 | [Fd]2 [Fd]>[Fd] [Fd][Fd][Fc][GB] | [FA]2 [DF]2 [FA]4 |[M:2/4] [GB]2 [AB]>[AB] | %11
w: ||||
 [^GB][Ge] [EBe][EBd] |[M:4/4] [EAc][EBd][EAc][D^GB] [CA]4 | d2 d>d d D2 D | F2 [FA]2 [GB]3 [GB] | %15
w: ||||
 [FA]>[FA] BB Adc[Ad] |[M:8/4] e2 c2 [Fd]4 z8 |] %17
w: ||
V:2
 [D,A,D]2 [D,A,D][D,A,] [D,D][D,D][D,D][D,D] | [G,DG][G,DG][G,DG][G,DG][K:bass] [D,D]3 [D,A,] | %2
 [A,,A,]2 [A,,A,][A,,A,] [A,,A,]2 [A,,A,][A,,A,] | z[K:treble] B[K:bass]C,C, D,3 A, | %4
 D2 D>D DD,[D,F,][D,F,] | [D,A,D]2 [D,D]2 [G,D]3 [G,D] | %6
 [D,D]>[D,D][K:treble] [G,DG][G,DG] [A,DF][A,F][A,EG][F,D] | [G,B,G]2 [A,G]2[K:bass] [D,A,]4 | %8
 [D,A,]2 [D,A,]>[D,A,] [D,A,][D,A,][D,B,][D,C] | [D,D]2 [D,A,]2 [D,D]4 | %10
[M:2/4] [G,D]2 [F,^D]>[F,D] | [E,E][E,B,] ^G,G, |[M:4/4] A,A,E,E, A,4 | D2 D>D D D,2 [D,F,] | %14
 [D,A,D]2 [D,D]2 [G,D]3 [G,D] | [D,D]>[D,D][K:treble] [G,DG][G,DG] [A,DF][A,F][A,EG][F,D] | %16
[M:8/4] [G,B,G]2 [A,G]2[K:bass] [D,A,]4 z8 |] %17
V:3
 x8 | x4[K:bass] x4 | x8 | [A,,A,]2[K:treble][K:bass] z2 z4 | x8 | x8 | x2[K:treble] x6 | %7
 x4[K:bass] x4 | x8 | x8 |[M:2/4] x4 | x4 |[M:4/4] x8 | x8 | x8 | x2[K:treble] x6 | %16
[M:8/4] x4[K:bass] x12 |] %17

